crypto/ooki.svg

<svg fill="none" height="32" viewBox="0 0 32 32" width="32" xmlns="http://www.w3.org/2000/svg" xmlns:xlink="http://www.w3.org/1999/xlink"><linearGradient id="a" gradientUnits="userSpaceOnUse" x1=".777031" x2="31.226" y1="16" y2="16"><stop offset="0" stop-color="#ffb544"/><stop offset=".434" stop-color="#ff6d88"/><stop offset="1" stop-color="#3e9eff"/></linearGradient><linearGradient id="b" gradientUnits="userSpaceOnUse" x1="43.2351" x2="14.5681" y1="36.755" y2="13.625"><stop offset="0" stop-color="#004cff"/><stop offset="1" stop-color="#66d4ff"/></linearGradient><radialGradient id="c" cx="0" cy="0" gradientTransform="matrix(14.34117798 3.44992236 -3.44901019 14.33738615 17.9157 15.906)" gradientUnits="userSpaceOnUse" r="1"><stop offset=".48" stop-color="#004cff" stop-opacity="0"/><stop offset=".993" stop-color="#0952ff"/><stop offset="1" stop-color="#004cff"/></radialGradient><linearGradient id="d" gradientUnits="userSpaceOnUse" x1="6.88295" x2="25.014" y1="9.71502" y2="22.982"><stop offset="0" stop-color="#004cff"/><stop offset=".809" stop-color="#004cff" stop-opacity="0"/></linearGradient><radialGradient id="e" cx="0" cy="0" gradientTransform="matrix(12.931466 9.08430727 -9.08344502 12.93023859 8.4836 8.53727)" gradientUnits="userSpaceOnUse" r="1"><stop offset=".474" stop-color="#004cff"/><stop offset="1" stop-color="#004cff" stop-opacity="0"/></radialGradient><radialGradient id="f" cx="0" cy="0" gradientTransform="matrix(23.758 0 0 23.751 4.78812 8.92464)" gradientUnits="userSpaceOnUse" r="1"><stop offset="0" stop-color="#ffbe3b"/><stop offset=".134" stop-color="#ffb445"/><stop offset=".364" stop-color="#ff995e"/><stop offset=".659" stop-color="#ff6d88"/><stop offset=".713" stop-color="#ff6490"/></radialGradient><clipPath id="g"><path d="m0 0h32v32h-32z"/></clipPath><g clip-path="url(#g)"><path d="m15.9999 31.1c8.4 0 15.1-6.8 15.1-15.1 0-8.29998-6.7-15.099976-15.1-15.099976s-15.099998 6.700006-15.099998 15.099976c0 8.4 6.699998 15.1 15.099998 15.1z" fill="#fff"/><path d="m26.2 3.70001c-2.6-2.1-5.7-3.399999-9-3.599999-3.3-.3-6.7.5-9.49997 2.299999-2.7 1.6-4.9 4-6.3 6.9-1.39999936 3.09999-1.799999 6.59999-1.099999 9.89999 1.299999 6.4 6.699999 11.6 13.199969 12.6.8.1 1.7.2 2.5.2 3.3 0 6.6-1 9.3-3 2.6-1.9 4.7-4.5 5.8-7.6 2.3-6.2.3-13.49999-4.9-17.69999zm3.8 15.09999c-1.2 5.8-5.9 10.4-11.8 11.3-.7.1-1.5.2-2.2.2-5.9 0-11.39997-3.8-13.39997-9.3-1-2.8-1.2-5.9-.3-8.8.8-2.89999 2.4-5.39999 4.7-7.19999 4.59997-3.8 11.29997-4.199999 16.39997-1.2 5 3.1 7.8 9.19999 6.6 14.99999z" fill="url(#a)"/><path d="m19.3001 24.6c4 0 7.2-3.2 7.2-7.2s-3.2-7.2-7.2-7.2-7.2 3.2-7.2 7.2c.1 4 3.3 7.2 7.2 7.2z" fill="url(#b)"/><path d="m19.3001 24.6c4 0 7.2-3.2 7.2-7.2s-3.2-7.2-7.2-7.2-7.2 3.2-7.2 7.2c.1 4 3.3 7.2 7.2 7.2z" fill="url(#c)"/><path d="m26.5 17.5v-.7l-8.4-6.4c-3.4.6-5.9 3.5-5.9 7.1 0 3.9 3.2 7.2 7.2 7.2 1.4 0 2.8-.4 3.9-1.2l2.9-3.8c.2-.7.3-1.5.3-2.2z" fill="url(#d)"/><path d="m19.3001 24.6c4 0 7.2-3.2 7.2-7.2s-3.2-7.2-7.2-7.2-7.2 3.2-7.2 7.2c.1 4 3.3 7.2 7.2 7.2z" fill="url(#e)"/><path d="m12.2 21.7c4 0 7.2-3.2 7.2-7.2s-3.2-7.20001-7.2-7.20001-7.2 3.30001-7.2 7.20001c0 4 3.2 7.2 7.2 7.2z" fill="url(#f)"/></g></svg>

<svg width="32" height="32" fill="none" xmlns="http://www.w3.org/2000/svg"><defs><radialGradient id="d" cx="0" cy="0" r="1" gradientUnits="userSpaceOnUse" gradientTransform="rotate(13.526 -58.106 83.49) scale(14.7503 14.7464)"><stop offset=".48" stop-color="#004CFF" stop-opacity="0"/><stop offset=".993" stop-color="#0952FF"/><stop offset="1" stop-color="#004CFF"/></radialGradient><radialGradient id="f" cx="0" cy="0" r="1" gradientUnits="userSpaceOnUse" gradientTransform="matrix(12.93147 9.0843 -9.08345 12.93024 8.484 8.537)"><stop offset=".474" stop-color="#004CFF"/><stop offset="1" stop-color="#004CFF" stop-opacity="0"/></radialGradient><radialGradient id="g" cx="0" cy="0" r="1" gradientUnits="userSpaceOnUse" gradientTransform="matrix(23.758 0 0 23.751 4.788 8.925)"><stop stop-color="#FFBE3B"/><stop offset=".134" stop-color="#FFB445"/><stop offset=".364" stop-color="#FF995E"/><stop offset=".659" stop-color="#FF6D88"/><stop offset=".713" stop-color="#FF6490"/></radialGradient><linearGradient id="b" x1=".777" y1="16" x2="31.226" y2="16" gradientUnits="userSpaceOnUse"><stop stop-color="#FFB544"/><stop offset=".434" stop-color="#FF6D88"/><stop offset="1" stop-color="#3E9EFF"/></linearGradient><linearGradient id="c" x1="43.235" y1="36.755" x2="14.568" y2="13.625" gradientUnits="userSpaceOnUse"><stop stop-color="#004CFF"/><stop offset="1" stop-color="#66D4FF"/></linearGradient><linearGradient id="e" x1="6.883" y1="9.715" x2="25.014" y2="22.982" gradientUnits="userSpaceOnUse"><stop stop-color="#004CFF"/><stop offset=".809" stop-color="#004CFF" stop-opacity="0"/></linearGradient><clipPath id="a"><path fill="#fff" d="M0 0h32v32H0z"/></clipPath></defs><g clip-path="url(#a)"><path d="M16 31.1c8.4 0 15.1-6.8 15.1-15.1S24.4.9 16 .9C7.6.9.9 7.6.9 16c0 8.4 6.7 15.1 15.1 15.1Z" fill="#fff"/><path d="M26.2 3.7c-2.6-2.1-5.7-3.4-9-3.6-3.3-.3-6.7.5-9.5 2.3C5 4 2.8 6.4 1.4 9.3 0 12.4-.4 15.9.3 19.2 1.6 25.6 7 30.8 13.5 31.8c.8.1 1.7.2 2.5.2 3.3 0 6.6-1 9.3-3 2.6-1.9 4.7-4.5 5.8-7.6 2.3-6.2.3-13.5-4.9-17.7ZM30 18.8c-1.2 5.8-5.9 10.4-11.8 11.3-.7.1-1.5.2-2.2.2-5.9 0-11.4-3.8-13.4-9.3-1-2.8-1.2-5.9-.3-8.8C3.1 9.3 4.7 6.8 7 5 11.6 1.2 18.3.8 23.4 3.8c5 3.1 7.8 9.2 6.6 15Z" fill="url(#b)"/><path d="M19.3 24.6c4 0 7.2-3.2 7.2-7.2s-3.2-7.2-7.2-7.2-7.2 3.2-7.2 7.2c.1 4 3.3 7.2 7.2 7.2Z" fill="url(#c)"/><path d="M19.3 24.6c4 0 7.2-3.2 7.2-7.2s-3.2-7.2-7.2-7.2-7.2 3.2-7.2 7.2c.1 4 3.3 7.2 7.2 7.2Z" fill="url(#d)"/><path d="M26.5 17.5v-.7l-8.4-6.4c-3.4.6-5.9 3.5-5.9 7.1 0 3.9 3.2 7.2 7.2 7.2 1.4 0 2.8-.4 3.9-1.2l2.9-3.8c.2-.7.3-1.5.3-2.2Z" fill="url(#e)"/><path d="M19.3 24.6c4 0 7.2-3.2 7.2-7.2s-3.2-7.2-7.2-7.2-7.2 3.2-7.2 7.2c.1 4 3.3 7.2 7.2 7.2Z" fill="url(#f)"/><path d="M12.2 21.7c4 0 7.2-3.2 7.2-7.2s-3.2-7.2-7.2-7.2S5 10.6 5 14.5c0 4 3.2 7.2 7.2 7.2Z" fill="url(#g)"/></g></svg>
